X: 31069
T: Paddy Cronin's
R: polka
M: 2/4
K: Ddorian
|:AD ED|dB c2|AD ED/E/|Gc c>B|
AD ED|dB c2|A/_B/=B/A/ Gc|1 ED D>G:|2 ED D(3E/F/G/||
|:Ad ed|ad e/^f/e/d/|Ad ed/e/|gc c2|
[1 Ad ed|ad e/^f/e/d/|AB/A/ Gc|ED D(3E/F/G/:|
[2 ab/a/ ge|fd ec|A/B/A/G/ A/B/A/G/|Ad d/e/d/c/||

